packages/astro-components-stencil/src/icons/processor-alt.svg

<svg width="24" height="24" viewBox="0 0 24 24" fill="none" xmlns="http://www.w3.org/2000/svg">
<path fill-rule="evenodd" clip-rule="evenodd" d="M15.6842 2V10.8816L11.4655 10.9474L11.4049 10.9518C11.1861 10.9804 11.01 11.1431 10.961 11.3542L10.9508 11.413L10.9474 11.4737V22H9.36789L9.36842 18.3158L9.36488 18.2544C9.33915 18.0329 9.17592 17.8534 8.96278 17.8034L8.90348 17.793L8.84211 17.7895H5.68421L5.62283 17.793L5.59712 17.7973C5.38261 17.18 4.79568 16.7368 4.10526 16.7368C3.23323 16.7368 2.52632 17.4438 2.52632 18.3158C2.52632 19.1878 3.23323 19.8947 4.10526 19.8947C4.80717 19.8947 5.4021 19.4367 5.60675 18.8028L5.68421 18.8421H8.31579L8.31526 22H3.57895C2.70692 22 2 21.2931 2 20.4211V15.1579H4.63158L4.69296 15.1544C4.93458 15.1263 5.12629 14.9346 5.15435 14.693L5.15789 14.6316L5.15837 9.27841C5.77138 9.06152 6.21053 8.47678 6.21053 7.78947C6.21053 6.91745 5.50361 6.21053 4.63158 6.21053C3.75955 6.21053 3.05263 6.91745 3.05263 7.78947C3.05263 8.4426 3.44919 9.00311 4.01465 9.24335L4.10531 9.27859L4.10526 14.1053H2V5.15789H9.89474L9.95612 5.15435C10.1977 5.12629 10.3894 4.93458 10.4175 4.69296L10.4211 4.63158V2H12V7.26316H8.84211L8.78073 7.2667C8.5391 7.29476 8.34739 7.48647 8.31933 7.72809L8.31579 7.78947L8.31584 13.6688C7.70255 13.8855 7.26316 14.4704 7.26316 15.1579C7.26316 16.0299 7.97008 16.7368 8.84211 16.7368C9.71413 16.7368 10.4211 16.0299 10.4211 15.1579C10.4211 14.505 10.0247 13.9446 9.45951 13.7042L9.3689 13.669L9.36842 8.31579H12.5263L12.5877 8.31225C12.8293 8.28418 13.021 8.09248 13.0491 7.85085L13.0526 7.78947V2H15.6842ZM18.8421 2V10.9474L18.8456 11.0087C18.8737 11.2504 19.0654 11.4421 19.307 11.4701L19.3684 11.4737H22V13.5789H15.1579L15.0965 13.5825C14.8549 13.6106 14.6632 13.8023 14.6351 14.0439L14.6316 14.1053L14.6316 17.353C14.0183 17.5697 13.5789 18.1546 13.5789 18.8421C13.5789 19.7141 14.2859 20.4211 15.1579 20.4211C16.0299 20.4211 16.7368 19.7141 16.7368 18.8421C16.7368 18.1892 16.3405 17.6288 15.7753 17.3884L15.6847 17.3532L15.6842 14.6316H22V16.7368H17.7895L17.7281 16.7404C17.4865 16.7684 17.2948 16.9602 17.2667 17.2018L17.2632 17.2632V22H12V11.9916L16.2187 11.9267L16.2793 11.9222C16.4981 11.8937 16.6742 11.731 16.7232 11.5198L16.7334 11.4611L16.7368 11.4004V2H18.8421ZM22 17.7895V20.4211C22 21.2931 21.2931 22 20.4211 22H18.3158V17.7895H22ZM15.1579 18.3158C15.4486 18.3158 15.6842 18.5514 15.6842 18.8421C15.6842 19.1328 15.4486 19.3684 15.1579 19.3684C14.8672 19.3684 14.6316 19.1328 14.6316 18.8421C14.6316 18.5514 14.8672 18.3158 15.1579 18.3158ZM4.10526 17.7895C4.39594 17.7895 4.63158 18.0251 4.63158 18.3158C4.63158 18.6065 4.39594 18.8421 4.10526 18.8421C3.81459 18.8421 3.57895 18.6065 3.57895 18.3158C3.57895 18.0251 3.81459 17.7895 4.10526 17.7895ZM8.84211 14.6316C9.13278 14.6316 9.36842 14.8672 9.36842 15.1579C9.36842 15.4486 9.13278 15.6842 8.84211 15.6842C8.55143 15.6842 8.31579 15.4486 8.31579 15.1579C8.31579 14.8672 8.55143 14.6316 8.84211 14.6316ZM22 3.57895V10.4211H19.8947V2H20.4211C21.2931 2 22 2.70692 22 3.57895ZM4.63158 7.26316C4.92226 7.26316 5.15789 7.4988 5.15789 7.78947C5.15789 8.08015 4.92226 8.31579 4.63158 8.31579C4.3409 8.31579 4.10526 8.08015 4.10526 7.78947C4.10526 7.4988 4.3409 7.26316 4.63158 7.26316ZM9.36842 2V4.10526H2V3.57895C2 2.70692 2.70692 2 3.57895 2H9.36842Z" fill="black"/>
</svg>

<svg xmlns="http://www.w3.org/2000/svg" viewBox="0 0 24 24"><g xmlns="http://www.w3.org/2000/svg" id="processor-alt">
            <path d="M15.684 2v8.882l-4.218.065-.061.005a.527.527 0 00-.444.402l-.01.059-.004.06V22h-1.58l.001-3.684-.003-.062a.527.527 0 00-.402-.45l-.06-.011-.06-.004H5.683l-.061.004-.026.004a1.58 1.58 0 10.01 1.006l.077.04h2.632V22H3.578A1.579 1.579 0 012 20.421v-5.263h2.632l.061-.004a.527.527 0 00.461-.461l.004-.061V9.278a1.58 1.58 0 10-1.143-.035l.09.036v4.826H2V5.158h7.895l.061-.004a.527.527 0 00.462-.461l.003-.061V2H12v5.263H8.842l-.061.004a.527.527 0 00-.462.461l-.003.061v5.88a1.58 1.58 0 101.144.035l-.091-.035V8.316h3.157l.062-.004a.527.527 0 00.461-.461l.004-.062V2h2.631zm3.158 0v8.947l.004.062c.028.241.22.433.461.461l.061.004H22v2.105h-6.842l-.061.003a.527.527 0 00-.462.462l-.003.061v3.248a1.58 1.58 0 101.143.035l-.09-.035v-2.721H22v2.105h-4.21l-.062.003a.527.527 0 00-.461.462l-.004.061V22H12V11.992l4.219-.065.06-.005a.527.527 0 00.444-.402l.01-.059.004-.06V2h2.105zM22 17.79v2.631c0 .872-.707 1.579-1.579 1.579h-2.105v-4.21H22zm-6.842.526a.526.526 0 110 1.052.526.526 0 010-1.052zm-11.053-.527a.526.526 0 110 1.053.526.526 0 010-1.053zm4.737-3.157a.526.526 0 110 1.052.526.526 0 010-1.052zM22 3.579v6.842h-2.105V2h.526C21.293 2 22 2.707 22 3.579zM4.632 7.263a.526.526 0 110 1.053.526.526 0 010-1.053zM9.368 2v2.105H2V3.58C2 2.707 2.707 2 3.579 2h5.79z"/>
        </g></svg>
